assets/icons/24px/stroke/alarm-clock-24px.svg

<svg width="24" height="24" viewBox="0 0 24 24" fill="none" xmlns="http://www.w3.org/2000/svg">
<path fill-rule="evenodd" clip-rule="evenodd" d="M12 3C7.02944 3 3 7.02944 3 12C3 16.9706 7.02944 21 12 21C16.9706 21 21 16.9706 21 12C21 7.02944 16.9706 3 12 3ZM1 12C1 5.92487 5.92487 1 12 1C18.0751 1 23 5.92487 23 12C23 18.0751 18.0751 23 12 23C5.92487 23 1 18.0751 1 12Z" fill="white"/>
<path fill-rule="evenodd" clip-rule="evenodd" d="M3.70711 1.29289C4.09763 1.68342 4.09763 2.31658 3.70711 2.70711L2.70711 3.70711C2.31658 4.09763 1.68342 4.09763 1.29289 3.70711C0.902369 3.31658 0.902369 2.68342 1.29289 2.29289L2.29289 1.29289C2.68342 0.902369 3.31658 0.902369 3.70711 1.29289ZM20.2929 1.29289C20.6834 0.902369 21.3166 0.902369 21.7071 1.29289L22.7071 2.29289C23.0976 2.68342 23.0976 3.31658 22.7071 3.70711C22.3166 4.09763 21.6834 4.09763 21.2929 3.70711L20.2929 2.70711C19.9024 2.31658 19.9024 1.68342 20.2929 1.29289ZM5.20711 18.7929C5.59763 19.1834 5.59763 19.8166 5.20711 20.2071L2.70711 22.7071C2.31658 23.0976 1.68342 23.0976 1.29289 22.7071C0.902369 22.3166 0.902369 21.6834 1.29289 21.2929L3.79289 18.7929C4.18342 18.4024 4.81658 18.4024 5.20711 18.7929ZM18.7929 18.7929C19.1834 18.4024 19.8166 18.4024 20.2071 18.7929L22.7071 21.2929C23.0976 21.6834 23.0976 22.3166 22.7071 22.7071C22.3166 23.0976 21.6834 23.0976 21.2929 22.7071L18.7929 20.2071C18.4024 19.8166 18.4024 19.1834 18.7929 18.7929Z" fill="white"/>
<path fill-rule="evenodd" clip-rule="evenodd" d="M12 11C12.5523 11 13 11.4477 13 12V16C13 16.5523 12.5523 17 12 17C11.4477 17 11 16.5523 11 16V12C11 11.4477 11.4477 11 12 11Z" fill="white"/>
<path fill-rule="evenodd" clip-rule="evenodd" d="M11.2929 12.7071C10.9024 12.3166 10.9024 11.6834 11.2929 11.2929L14.1213 8.46444C14.5118 8.07391 15.145 8.07391 15.5355 8.46444C15.9261 8.85496 15.9261 9.48813 15.5355 9.87865L12.7071 12.7071C12.3166 13.0976 11.6834 13.0976 11.2929 12.7071Z" fill="white"/>
</svg>

<svg width="24" height="24" fill="none" xmlns="http://www.w3.org/2000/svg"><path fill-rule="evenodd" clip-rule="evenodd" d="M12 3a9 9 0 1 0 0 18 9 9 0 0 0 0-18zM1 12C1 5.925 5.925 1 12 1s11 4.925 11 11-4.925 11-11 11S1 18.075 1 12z" fill="#fff"/><path fill-rule="evenodd" clip-rule="evenodd" d="M3.707 1.293a1 1 0 0 1 0 1.414l-1 1a1 1 0 0 1-1.414-1.414l1-1a1 1 0 0 1 1.414 0zm16.586 0a1 1 0 0 1 1.414 0l1 1a1 1 0 0 1-1.414 1.414l-1-1a1 1 0 0 1 0-1.414zm-15.086 17.5a1 1 0 0 1 0 1.414l-2.5 2.5a1 1 0 0 1-1.414-1.414l2.5-2.5a1 1 0 0 1 1.414 0zm13.586 0a1 1 0 0 1 1.414 0l2.5 2.5a1 1 0 0 1-1.414 1.414l-2.5-2.5a1 1 0 0 1 0-1.414zM12 11a1 1 0 0 1 1 1v4a1 1 0 1 1-2 0v-4a1 1 0 0 1 1-1z" fill="#fff"/><path fill-rule="evenodd" clip-rule="evenodd" d="M11.293 12.707a1 1 0 0 1 0-1.414l2.828-2.829a1 1 0 1 1 1.415 1.415l-2.829 2.828a1 1 0 0 1-1.414 0z" fill="#fff"/></svg>
